X:284
T:Hither To The Gill(?) Jaw.284
M:6/8
L:1/8
Q:3/8=80
C:Ghyll?
S:James Winder Ms, Lancashire, 1835-41
R:.Jigg
O:England
A:Wyresdale,Lancashire
N:Title Not Clear. The Clue To antiquity of this tune lies in the time
N:signature, which in the Ms is 6/4, though spelt in jig time as
N:here..CGP
Z:vmp.Chris Partington, Aug 2004
K:G
“_Time Sig. as given”(e/f/)|gdB gdB|B>AG AFD|gdB gdB|cA2G2:|!
|:(B/c/)|dBG ecA|dBG AFD|dBG gdB|cA2G2:|

